X: 26305
T: Memories Of Highgate
R: hornpipe
M: 4/4
K: Gminor
EE|:"Eb"G2 G2 GG/A/ (3G/F/G/ GE|"Ab"c2 c2 cc/c/ de/B/|
"Eb"B2 BG/G/ AB GE|"Fm" F2 "Bb"F2 F(3F/F/G/ G/F/(3E/E/F/|
"Eb"G2 G2 GG/A/"Eb/GBase"(3G/F/G/ GE|"Ab"c2 c2 cc/c/ de/B/|
"Eb"B2 BG "Bb"FG/F/ EF|1 "Ab"E4 "Eb"E2 EE/E/:|2 "Ab"E4 E2 EB/B/||
|:"Eb"e4 ee/f/(3e/d/e/ "Bb"fg|gB "Gm7"b2 ba g/f/e|
"Ab"c2 c2 ca/g/ fe|"Bb"ef/e/ d2 d/B/c/d/ e/f/(3g/f/e/|
"Eb"e4 ee/f/(3e/d/e/ "Bb"fg|gB "Gm7"b2 ba g/f/e|
"Ab"c2 cd/e/ "Bb"d2 de|1 "Cm/BbBase"e4 "Ab/ABase"e4:|2 "Eb"e4 "Ebsus"e4||

